X: 913
T: South Shore, The
B: jims roots
M:4/4
L:1/8
R: hornpipe
Q: 1/4=100
K:Dmaj
V:1 
%Z: Dr. Dow
A2 | "D"dfaf "G"gfeg | "D"fdAG "A"FGAd | "G"BGBG "D"FAdf | "G"gfed "A"cdeA |
"D"dfaf "G"gfeg | "D"fdAG "A"FGAd | "G"BGBG "D"FGAd | "G"gedc "D"d2 :|
|: fg | "D"a2fa dafa | dafa bagf | "G"g2eg cgeg | cgeg agfe |
"D"a2fa dafa | dafa bagf | "G"gfga gbag | "A"fedc "D"d2 :|
% abcbook-tune_id 6298c28773c5fea0d0dc5fe4


% abcbook-boost 0
% abcbook-tablature 
% abcbook-transpose 
% abcbook-lastupdated 1654178440694
% abcbook-soundfonts 
% abcbook-repeats 1


